LucasHints/Assets.xcassets/glyphs/transportation/street.imageset/street.svg

<svg enable-background="new 0 0 123.22 123.38" viewBox="0 0 123.22 123.38" xmlns="http://www.w3.org/2000/svg"><path clip-rule="evenodd" d="m.34 123.13 38.6-122.88h7.2l-34.45 122.88zm59.61-115.17h3.93l.54 13.55h-5.29zm-4.27 86.75h12.53l.99 21.71-15.06.13zm1.17-30.85h9.84l1.14 19.21h-11.9zm1.79-30.74h6.55l.86 19.21h-8.33zm-10.3-32.87h26.68l27.17 122.88h-80.38zm28.86 0h7.74l37.94 122.88h-10.78z" fill-rule="evenodd" stroke="#000" stroke-miterlimit="2.6131" stroke-width=".5"/></svg>

<?xml version="1.0" encoding="utf-8"?><svg version="1.1" id="Layer_1" xmlns="http://www.w3.org/2000/svg" xmlns:xlink="http://www.w3.org/1999/xlink" x="0px" y="0px" viewBox="0 0 123.22 123.38" style="enable-background:new 0 0 123.22 123.38" xml:space="preserve"><style type="text/css">.st0{fill-rule:evenodd;clip-rule:evenodd;stroke:#000000;stroke-width:0.5;stroke-miterlimit:2.6131;}</style><g><path class="st0" d="M0.34,123.13L38.94,0.25h7.2L11.69,123.13H0.34L0.34,123.13z M59.95,7.96h3.93l0.54,13.55h-5.29L59.95,7.96 L59.95,7.96z M55.68,94.71h12.53l0.99,21.71l-15.06,0.13L55.68,94.71L55.68,94.71z M56.85,63.86h9.84l1.14,19.21h-11.9L56.85,63.86 L56.85,63.86z M58.64,33.12h6.55l0.86,19.21h-8.33L58.64,33.12L58.64,33.12z M48.34,0.25h26.68l27.17,122.88H21.81L48.34,0.25 L48.34,0.25z M77.2,0.25h7.74l37.94,122.88H112.1L77.2,0.25L77.2,0.25z"/></g></svg>
